resources/haticons/SVG/add_location_alt.svg

<!-- Generated by IcoMoon.io -->
<svg version="1.1" xmlns="http://www.w3.org/2000/svg" width="24" height="24" viewBox="0 0 24 24">
<title>add_location_alt</title>
<path d="M20.016 0.984v3h3v2.016h-3v3h-2.016v-3h-3v-2.016h3v-3h2.016zM12 12.984q0.844 0 1.43-0.586t0.586-1.383q0-0.844-0.586-1.43t-1.43-0.586-1.43 0.586-0.586 1.43q0 0.797 0.586 1.383t1.43 0.586zM14.016 3.234v3.75h3v3h2.906q0.094 0.656 0.094 1.219 0 4.969-8.016 11.813-8.016-6.844-8.016-11.813 0-1.875 0.656-3.375t1.781-2.578 2.555-1.664 3.023-0.586q1.031 0 2.016 0.234z"></path>
</svg>

<svg xmlns="http://www.w3.org/2000/svg" width="24" height="24"><path d="M20.016.984v3h3V6h-3v3H18V6h-3V3.984h3v-3h2.016zm-8.016 12q.844 0 1.43-.586t.586-1.383q0-.844-.586-1.43T12 8.999t-1.43.586-.586 1.43q0 .797.586 1.383t1.43.586zm2.016-9.75v3.75h3v3h2.906q.094.656.094 1.219 0 4.969-8.016 11.813-8.016-6.844-8.016-11.813 0-1.875.656-3.375T6.421 5.25t2.555-1.664T11.999 3q1.031 0 2.016.234z"/></svg>
